X: 15044
T: George's Welcome
R: jig
M: 6/8
K: Gmajor
EFD E2(E|E2) BAFD|EFD E2E|ede BAF|
EFD E2(E|E2) BAFD|EFD E2E|BAB e3:|
Bef g2(g|g2) agfe|Bef g3|afg e3|
Bef g2(g|g2) agfe|afg e2c|d2B AFD:|

